src/main/webapp/iaf/editor/app/media/icons/format.svg

<svg id="Laag_1" xmlns="http://www.w3.org/2000/svg" viewBox="-76 77 48 48"><style>.st0{fill:#ffc107}.st1{fill:none}</style><path class="st0" d="M-68 98c-1.7 0-3 1.3-3 3s1.3 3 3 3 3-1.3 3-3-1.3-3-3-3zm0-12c-1.7 0-3 1.3-3 3s1.3 3 3 3 3-1.3 3-3-1.3-3-3-3zm0 24.3c-1.5 0-2.7 1.2-2.7 2.7s1.2 2.7 2.7 2.7 2.7-1.2 2.7-2.7-1.2-2.7-2.7-2.7zm6 4.7h28v-4h-28v4zm0-12h28v-4h-28v4zm0-16v4h28v-4h-28z"/><path class="st1" d="M-76 77h48v48h-48V77z"/></svg>

<?xml version="1.0" encoding="utf-8"?>
<!-- Generator: Adobe Illustrator 19.0.0, SVG Export Plug-In . SVG Version: 6.00 Build 0)  -->
<svg version="1.1" id="Laag_1" xmlns="http://www.w3.org/2000/svg" xmlns:xlink="http://www.w3.org/1999/xlink" x="0px" y="0px"
	 viewBox="-76 77 48 48" style="enable-background:new -76 77 48 48;" xml:space="preserve">
<style type="text/css">
	.st0{fill:#FFC107;}
	.st1{fill:none;}
</style>
<path class="st0" d="M-68,98c-1.7,0-3,1.3-3,3s1.3,3,3,3s3-1.3,3-3S-66.3,98-68,98z M-68,86c-1.7,0-3,1.3-3,3s1.3,3,3,3s3-1.3,3-3
	S-66.3,86-68,86z M-68,110.3c-1.5,0-2.7,1.2-2.7,2.7s1.2,2.7,2.7,2.7s2.7-1.2,2.7-2.7S-66.5,110.3-68,110.3z M-62,115h28v-4h-28V115
	z M-62,103h28v-4h-28V103z M-62,87v4h28v-4H-62z"/>
<path class="st1" d="M-76,77h48v48h-48V77z"/>
</svg>
